X:115
T:Pappy Daily's Breakdown
C:Ward Allen
R:Breakdown
M:2/4
L:1/16
Z:abc by Bruce Osborne - bosborne@kos.net
K:Bb
FA|B2BA BcdB|fBbf gfdB|c2cd cAFA|gcac gcAc|
B2BA BcdB|fBbf gfdB|cdcB AFGA|BdcA B2:|
|:ba|g2ga b2bg|f2fc dcBd|cBcd ecAc|BABd f2ba|
g2ga b2bg|f2fc dcBd|cBcB AFGA|BdcA B2:|
